tuition-calculator/static/icons/receipt.svg

<svg width="24" height="24" viewBox="0 0 24 24" fill="none" xmlns="http://www.w3.org/2000/svg">
<path d="M4 2V22L6 21L8 22L10 21L12 22L14 21L16 22L18 21L20 22V2L18 3L16 2L14 3L12 2L10 3L8 2L6 3L4 2Z" stroke="#D55A4C" stroke-width="2" stroke-linecap="round" stroke-linejoin="round"/>
<path d="M16 8H10C9.46957 8 8.96086 8.21071 8.58579 8.58579C8.21071 8.96086 8 9.46957 8 10C8 10.5304 8.21071 11.0391 8.58579 11.4142C8.96086 11.7893 9.46957 12 10 12H14C14.5304 12 15.0391 12.2107 15.4142 12.5858C15.7893 12.9609 16 13.4696 16 14C16 14.5304 15.7893 15.0391 15.4142 15.4142C15.0391 15.7893 14.5304 16 14 16H8" stroke="#D55A4C" stroke-width="2" stroke-linecap="round" stroke-linejoin="round"/>
<path d="M12 17.5V6.5" stroke="#D55A4C" stroke-width="2" stroke-linecap="round" stroke-linejoin="round"/>
</svg>

<svg xmlns="http://www.w3.org/2000/svg" width="24" height="24" viewBox="0 0 24 24" fill="none" stroke="currentColor" stroke-width="2" stroke-linecap="round" stroke-linejoin="round" class="lucide lucide-receipt-icon lucide-receipt"><path d="M4 2v20l2-1 2 1 2-1 2 1 2-1 2 1 2-1 2 1V2l-2 1-2-1-2 1-2-1-2 1-2-1-2 1Z"/><path d="M16 8h-6a2 2 0 1 0 0 4h4a2 2 0 1 1 0 4H8"/><path d="M12 17.5v-11"/></svg>
